icons-common/next.svg

<svg height="1em" width="auto" viewBox="0 0 105 105" fill="currentColor" xmlns="http://www.w3.org/2000/svg">
    <path d="M57.1108 63.6788L70.6296 49.4667V55.4485L57.1108 41.2788C55.7035 39.7939 55.7462 37.4606 57.2388 36.0182C58.6887 34.6606 60.949 34.6606 62.3563 36.0182L76.6426 49.4667C78.3911 51.0788 78.3484 53.8364 76.6426 55.4485L62.3563 68.897C58.902 72.1212 53.8271 67.0727 57.0682 63.6364L57.1108 63.6788Z"
          />
    <path d="M32.4616 48.788C46.2788 48.0668 60.1387 48.0668 73.9559 48.788C76.0029 48.9153 77.5808 50.6971 77.4529 52.7334C77.3249 54.6425 75.7897 56.0849 73.9559 56.2122C67.0473 56.6365 60.1387 56.6789 53.2301 56.7213C46.3214 56.6789 39.4128 56.6365 32.5042 56.2122C30.4572 56.0849 28.8793 54.3031 29.0073 52.2668C29.1352 50.3577 30.6704 48.9153 32.5042 48.788H32.4616Z"
          />
</svg>

<svg xmlns="http://www.w3.org/2000/svg" width="auto" height="1em" fill="currentColor" viewBox="0 0 105 105">
    <path d="m57.11 63.679 13.52-14.212v5.982l-13.52-14.17a3.726 3.726 0 0 1 .129-5.26c1.45-1.358 3.71-1.358 5.117 0l14.287 13.448c1.748 1.612 1.705 4.37 0 5.982L62.356 68.897c-3.454 3.224-8.529-1.824-5.288-5.26z"/>
    <path d="M32.462 48.788a398 398 0 0 1 41.494 0c2.047.127 3.625 1.91 3.497 3.945-.128 1.91-1.663 3.352-3.497 3.48-6.909.423-13.817.466-20.726.508-6.909-.042-13.817-.084-20.726-.509-2.047-.127-3.625-1.909-3.497-3.945.128-1.91 1.663-3.352 3.497-3.479z"/>
</svg>
